public/uploads/logo-taf.svg

<svg width="113" height="65" viewBox="0 0 113 65" fill="none" xmlns="http://www.w3.org/2000/svg">
<path d="M6.43233 10.1524C12.3262 12.0167 24.3024 14.3401 26.8271 14.9319C30.2432 15.7324 30.1629 17.8732 30.1629 17.8732C30.1629 17.8732 29.4797 17.177 27.8437 16.7939C26.615 16.5052 13.8932 13.504 7.16475 11.9839C3.37363 11.1256 2.46302 9.42903 2.46302 9.42903L2.45209 9.44402C2.45209 9.44402 0.662022 17.0449 8.71487 19.592C14.6082 21.4557 26.5849 23.7796 29.1102 24.3715C32.5263 25.172 32.446 27.3128 32.446 27.3128C32.446 27.3128 31.7622 26.6166 30.1268 26.2329C28.8981 25.9448 16.1763 22.9436 9.44728 21.4235C5.65617 20.5652 4.82208 18.9175 4.81334 18.9608C4.66139 19.7114 3.47803 26.6343 11.0898 29.0416C13.2018 29.7105 16.0943 30.4373 19.0535 31.1218C19.1361 31.1412 19.2722 31.1823 19.3673 31.2056C19.3569 31.26 19.3465 31.3161 19.3361 31.3733C18.6857 34.9369 17.4646 43.3583 25.0058 45.8805C31.1063 47.9218 34.4148 49.2415 38.0523 51.9302C41.3023 54.3307 51.4273 64.9667 57.8573 64.9667C57.8573 64.9667 59.4965 65 59.6238 65C64.2633 65 66.7185 61.1738 61.5161 58.3862C56.3121 55.5965 51.6541 44.9689 46.966 36.4042C42.0025 27.3316 40.3824 14.5649 34.8143 10.2185C34.4317 9.90703 34.0185 9.62611 33.5714 9.38128C32.8625 8.99266 31.731 8.69454 30.9035 8.50689L12.1933 4.23762C9.52545 3.61805 6.92042 3.01791 4.87018 2.55434C1.07851 1.6966 0.16845 0 0.16845 0L0.169545 0.00499654C0.169545 0.00499654 -1.62052 7.60585 6.43233 10.1524Z" fill="black"/>
<path d="M99.9486 32.4632H102.7V46.1709H109.432V32.4632H112.833V28.2528H109.296C109.194 26.5945 109.737 26.1115 111.368 26.1115C111.912 26.1115 112.459 26.283 113 26.353V21.6568C111.982 21.6229 110.994 21.5202 109.975 21.5202C107.255 21.5202 105.557 21.7267 104.094 23.2107C102.801 24.5226 102.634 26.4929 102.699 28.2533H99.9481L99.9486 32.4632Z" fill="black"/>
<path d="M77.2841 32.4634V28.2529H73.681V22.7973H66.9525V28.2529H63.9589V32.4634H66.9525V41.0252C66.9525 45.9296 70.114 46.3782 72.9661 46.3782C74.3943 46.3782 75.9247 46.1716 77.2841 46.1716V40.9919C76.7763 41.0618 76.2642 41.0968 75.7558 41.0968C74.0554 41.0968 73.681 40.3718 73.681 38.7135V32.4634H77.2841Z" fill="black"/>
<path d="M89.2903 35.0871C85.8566 35.7433 79.3293 35.5368 79.3293 41.1973C79.3293 44.9609 82.1519 46.6186 85.5511 46.6186C87.726 46.6186 89.7992 46.1373 91.2274 44.4801H91.2957C91.2624 44.9609 91.364 45.6876 91.5329 46.1706H98.4013C97.652 45.0291 97.5853 43.5124 97.5853 42.165V34.8123C97.5853 31.3597 97.652 27.8027 89.2225 27.8027C85.0417 27.8027 80.3503 28.6305 80.1454 33.6714H86.4005C86.4355 32.9136 86.8432 31.841 88.917 31.841C90.003 31.841 91.1257 32.2907 91.1257 33.4977C91.1257 34.6391 90.2091 34.9156 89.2903 35.0871ZM91.1257 39.7817C91.0241 41.647 89.8336 42.5781 88.3037 42.5781C87.0804 42.5781 86.1966 41.7503 86.1966 40.9209C86.1966 39.715 86.9782 39.3359 88.4748 38.9894C89.393 38.7812 90.3102 38.5397 91.1257 38.125V39.7817Z" fill="black"/>
</svg>

<?xml version="1.0" encoding="utf-8"?>
<!-- Generator: Adobe Illustrator 16.0.0, SVG Export Plug-In . SVG Version: 6.00 Build 0)  -->
<!DOCTYPE svg PUBLIC "-//W3C//DTD SVG 1.1//EN" "http://www.w3.org/Graphics/SVG/1.1/DTD/svg11.dtd">
<svg version="1.1" id="Layer_1" xmlns="http://www.w3.org/2000/svg" xmlns:xlink="http://www.w3.org/1999/xlink" x="0px" y="0px"
	 width="113px" height="65px" viewBox="0 0 113 65" enable-background="new 0 0 113 65" xml:space="preserve">
<path fill="#4D4D4D" d="M6.432,10.152c5.894,1.864,17.87,4.188,20.395,4.779c3.416,0.801,3.336,2.941,3.336,2.941
	s-0.684-0.696-2.319-1.079c-1.229-0.289-13.951-3.29-20.679-4.81c-3.791-0.858-4.702-2.555-4.702-2.555L2.452,9.444
	c0,0-1.79,7.601,6.263,10.148c5.894,1.864,17.87,4.188,20.396,4.78c3.416,0.8,3.335,2.941,3.335,2.941s-0.684-0.696-2.319-1.08
	c-1.229-0.288-13.951-3.29-20.68-4.81c-3.791-0.858-4.625-2.506-4.634-2.462c-0.152,0.75-1.335,7.673,6.276,10.081
	c2.112,0.669,5.004,1.396,7.964,2.081c0.083,0.019,0.218,0.06,0.313,0.083c-0.01,0.054-0.021,0.11-0.031,0.167
	c-0.65,3.564-1.871,11.985,5.67,14.508c6.101,2.041,9.409,3.361,13.046,6.049c3.25,2.4,13.375,13.037,19.805,13.037
	c0,0,1.639,0.033,1.767,0.033c4.64,0,7.095-3.826,1.892-6.613c-5.204-2.79-9.861-13.418-14.55-21.982
	c-4.963-9.073-6.583-21.839-12.151-26.186c-0.383-0.312-0.796-0.593-1.243-0.837c-0.709-0.389-1.84-0.687-2.668-0.875l-18.71-4.269
	C9.525,3.618,6.92,3.018,4.87,2.554C1.079,1.697,0.168,0,0.168,0l0.001,0.005C0.169,0.005-1.621,7.606,6.432,10.152z"/>
<path fill="#4D4D4D" d="M99.949,32.463h2.751v13.708h6.731V32.463h3.401v-4.21h-3.537c-0.103-1.658,0.44-2.142,2.072-2.142
	c0.544,0,1.091,0.172,1.632,0.242v-4.696c-1.018-0.034-2.006-0.137-3.025-0.137c-2.72,0-4.418,0.207-5.881,1.691
	c-1.293,1.312-1.46,3.282-1.395,5.042h-2.751L99.949,32.463z"/>
<path fill="#4D4D4D" d="M77.284,32.463v-4.21h-3.603v-5.456h-6.729v5.456h-2.994v4.21h2.994v8.562c0,4.904,3.16,5.353,6.014,5.353
	c1.428,0,2.958-0.206,4.317-0.206v-5.18c-0.508,0.069-1.021,0.104-1.528,0.104c-1.701,0-2.074-0.725-2.074-2.384v-6.25H77.284z"/>
<path fill="#4D4D4D" d="M89.291,35.087c-3.435,0.656-9.962,0.45-9.962,6.11c0,3.764,2.823,5.422,6.222,5.422
	c2.176,0,4.248-0.482,5.677-2.139h0.068c-0.034,0.48,0.067,1.207,0.237,1.689h6.868c-0.749-1.141-0.815-2.658-0.815-4.005v-7.353
	c0-3.453,0.066-7.01-8.363-7.01c-4.182,0-8.873,0.828-9.077,5.869H86.4c0.035-0.758,0.443-1.831,2.517-1.831
	c1.086,0,2.208,0.45,2.208,1.657C91.125,34.639,90.209,34.916,89.291,35.087z M91.125,39.781c-0.102,1.865-1.291,2.797-2.821,2.797
	c-1.224,0-2.106-0.828-2.106-1.657c0-1.206,0.781-1.585,2.277-1.932c0.918-0.208,1.836-0.45,2.65-0.864V39.781z"/>
</svg>
